mockup/templates/main/build/images/small/warranty.svg

<svg xmlns="http://www.w3.org/2000/svg" width="24" height="24" viewBox="0 0 24 24">
  <g fill="none" fill-rule="evenodd">
    <rect width="24" height="24" fill="#394791" rx="2"/>
    <path fill="#FFF" d="M11.5194113,14.2175176 C11.4110823,14.2177247 11.3069091,14.1754736 11.2292641,14.099768 L9.18950649,12.1102961 C9.02438095,11.9509195 9.01960173,11.6879238 9.17897835,11.522729 C9.33835498,11.3575342 9.60148918,11.3528242 9.76661472,11.5121316 C9.76772294,11.5132398 9.76883117,11.5142788 9.76987013,11.5153177 L11.5194113,13.2217766 L14.904,9.92065108 C15.066355,9.75836537 15.3294892,9.75836537 15.4917749,9.92072035 C15.6539913,10.0830061 15.6539913,10.346071 15.4917056,10.508426 C15.4892814,10.510781 15.4868571,10.5132052 15.4843636,10.5155602 L11.8095584,14.0990753 C11.7320519,14.1748502 11.6278788,14.2172398 11.5194113,14.2171013 L11.5194113,14.2175176 Z M16.6046407,17.0711273 C17.726303,16.3071446 18.6739048,14.5169455 18.6739048,13.1620017 L18.6739048,7.10949957 L13.9778009,4.8054303 L13.9754459,4.80432208 L12.3367273,3.99995844 L5.99996537,7.10084156 L5.99996537,13.1623481 C5.99996537,13.7295515 6.16779221,14.4030753 6.47262338,15.0589368 C6.87220779,15.9189887 7.45423377,16.6524952 8.06922944,17.0715429 L12.3370043,19.9792485 L16.6046407,17.0711273 Z"/>
  </g>
</svg>

<svg xmlns="http://www.w3.org/2000/svg" width="24" height="24"><g fill="none" fill-rule="evenodd"><rect width="24" height="24" fill="#394791" rx="2"/><path fill="#FFF" d="M11.52 14.218a.415.415 0 0 1-.29-.118l-2.04-1.99a.416.416 0 0 1 .577-.598l.003.003 1.75 1.707 3.384-3.301a.416.416 0 0 1 .588.587l-.008.008-3.674 3.583a.414.414 0 0 1-.29.118zm5.085 2.853c1.121-.764 2.069-2.554 2.069-3.909V7.109l-4.696-2.304h-.003L12.337 4 6 7.1v6.062c0 .568.168 1.241.473 1.897.4.86.981 1.593 1.596 2.013l4.268 2.907 4.268-2.908z"/></g></svg>
